X: 1352
T: Tie the Ribbons   #2
R: reel
%S: s:4 b:16(4+4+4+4)
B: O'Neill's 1850 #1352
O: Mrs. Cantwell
Z: Trish O'Neil
N: Compacted via repeats and multiple endings [JC]
M: C|
L: 1/8
K: Em
"^A"|: d | BGEF GBAG | FGAG FDDc | BGEF G2(ef) | {a}gefd Bee "^B":: f | gfga bgeg |
| fgag fd [1 df | gfga bgeg | gefd Bee :| [2 (3def | gabg fgaf | gfed Bee |]
